assets/images/true_false_icon.svg

<svg width="90" height="90" viewBox="0 0 90 90" fill="none" xmlns="http://www.w3.org/2000/svg">
<path d="M89.968 31.285C89.804 32.318 89.655 33.36 89.468 34.393C88.2319 40.9901 84.7533 46.9572 79.6215 51.2832C74.4897 55.6092 68.0203 58.0283 61.3091 58.1306C54.5979 58.2328 48.0578 56.012 42.7965 51.8443C37.5353 47.6767 33.8765 41.8184 32.44 35.262C31.0427 28.6118 31.9998 21.6828 35.1473 15.6604C38.2949 9.63794 43.4374 4.89641 49.695 2.247C52.3709 1.12819 55.2005 0.420193 58.088 0.147C58.2924 0.117114 58.4934 0.0672078 58.688 -0.002H62.908C63.37 0.068 63.824 0.147 64.286 0.198C70.4739 0.982832 76.2518 3.71577 80.7838 8.00149C85.3158 12.2872 88.367 17.9035 89.496 24.038C89.676 25.038 89.817 26.05 89.981 27.06V31.28L89.968 31.285ZM69.719 34.339C68.177 32.797 66.65 31.262 65.1 29.751C64.669 29.336 64.607 29.031 65.084 28.608C65.546 28.208 65.961 27.747 66.391 27.308C67.511 26.208 68.63 25.092 69.671 24.059L65.921 20.191C64.386 21.757 62.86 23.291 61.364 24.849C60.949 25.28 60.644 25.349 60.221 24.872C59.821 24.41 59.36 23.995 58.921 23.565C57.821 22.445 56.713 21.326 55.68 20.285L51.848 24C53.398 25.542 54.925 27.085 56.475 28.588C56.906 29.003 56.968 29.308 56.491 29.731C55.991 30.177 55.536 30.678 55.058 31.156C53.978 32.221 52.905 33.286 51.903 34.272L55.661 38.147C57.188 36.581 58.714 35.047 60.21 33.481C60.625 33.05 60.93 32.996 61.353 33.465C61.862 34.029 62.426 34.545 62.953 35.086C63.953 36.104 64.953 37.122 65.897 38.086L69.718 34.336L69.719 34.339Z" fill="#CD2222"/>
<path d="M36.025 52.792C35.735 53.097 35.5 53.348 35.258 53.598C32.565 56.291 29.864 58.969 27.194 61.686C26.685 62.203 26.372 62.226 25.863 61.686C24.391 60.144 22.863 58.656 21.4 57.192L17.877 60.739L26.719 69.57C26.774 69.515 27.04 69.312 27.275 69.07C31.315 65.038 35.3523 60.998 39.387 56.95C39.857 56.48 40.187 56.35 40.781 56.793C45.5559 60.3393 51.1888 62.5507 57.101 63.2C57.923 63.294 58.033 63.623 57.939 64.327C57.2045 70.5047 54.5063 76.2835 50.2415 80.8128C45.9766 85.3421 40.3704 88.3827 34.248 89.487C25.26 91.131 17.212 88.787 10.267 82.911C4.71437 78.3539 1.14021 71.8251 0.293 64.692C-0.981 54.577 2.313 46.051 9.829 39.208C14.1889 35.2702 19.6563 32.7715 25.487 32.052C26.293 31.942 26.669 32.029 26.787 32.984C27.5865 40.2056 30.6944 46.9766 35.649 52.291C35.766 52.416 35.86 52.565 36.033 52.791L36.025 52.792Z" fill="#CD2222"/>
</svg>

<svg xmlns="http://www.w3.org/2000/svg" width="90" height="90" viewBox="0 0 90 90">
  <g id="true_false_icon" transform="translate(0.019)">
    <rect id="Rectangle_49" data-name="Rectangle 49" width="90" height="90" transform="translate(-0.019)" fill="none"/>
    <path id="Path_11513" d="M89.949,31.285c-.164,1.033-.313,2.075-.5,3.108a29.1,29.1,0,0,1-57.028.869A29.308,29.308,0,0,1,49.676,2.247a28.787,28.787,0,0,1,8.393-2.1,3.152,3.152,0,0,0,.6-.149h4.22c.462.07.916.149,1.378.2a29.394,29.394,0,0,1,25.21,23.84c.18,1,.321,2.012.485,3.022v4.22ZM69.7,34.339c-1.542-1.542-3.069-3.077-4.619-4.588-.431-.415-.493-.72-.016-1.143.462-.4.877-.861,1.307-1.3,1.12-1.1,2.239-2.216,3.28-3.249l-3.75-3.868c-1.535,1.566-3.061,3.1-4.557,4.658-.415.431-.72.5-1.143.023-.4-.462-.861-.877-1.3-1.307-1.1-1.12-2.208-2.239-3.241-3.28L51.829,24c1.55,1.542,3.077,3.085,4.627,4.588.431.415.493.72.016,1.143-.5.446-.955.947-1.433,1.425-1.08,1.065-2.153,2.13-3.155,3.116l3.758,3.875c1.527-1.566,3.053-3.1,4.549-4.666.415-.431.72-.485,1.143-.016.509.564,1.073,1.08,1.6,1.621,1,1.018,2,2.036,2.944,3l3.821-3.75Z" fill="#ef5488"/>
    <path id="Path_11514" d="M36.006,52.792c-.29.305-.525.556-.767.806-2.693,2.693-5.394,5.371-8.064,8.088-.509.517-.822.54-1.331,0-1.472-1.542-3-3.03-4.463-4.494l-3.523,3.547L26.7,69.57c.055-.055.321-.258.556-.5q6.06-6.048,12.112-12.12c.47-.47.8-.6,1.394-.157A33.507,33.507,0,0,0,57.082,63.2c.822.094.932.423.838,1.127A29.051,29.051,0,0,1,34.229,89.487c-8.988,1.644-17.036-.7-23.981-6.576A27.813,27.813,0,0,1,.274,64.692C-1,54.577,2.294,46.051,9.81,39.208a28.584,28.584,0,0,1,15.658-7.156c.806-.11,1.182-.023,1.3.932A33.761,33.761,0,0,0,35.63,52.291c.117.125.211.274.384.5Z" fill="#ef5488"/>
  </g>
</svg>
